X:1
T:Partition sans titre
C:Compositeur / Arrangeur
L:1/8
M:4/4
I:linebreak $
K:D
V:1 treble nm="Violon" snm="Vln."
V:1
 fe |:"Bm" dBBB FBdB | fBdf B2 ed |"A" cAAA EAcA | eAce A2 fe |"Bm" dBBB FBdB | fBdf B2 cB | %7
"A" ABcd e2 fe |1"Bm" d2 c2 B2 fe :|2"Bm" d2 c2 B3 A |:"D" D2 DD DEFG | A2 AB AFED | %12
"G" d2 B2"D" AFDE | FDEF"A" ECB,A, |"D" D2 DD DEFG | A2 AB AFED |"G" d2 B2"D" AFDE |1 %17
 FD"A"EC"D" D3 A, :|2 FD"A"EC"D" D2 |] %19
